icons/breast_pump_fill.svg

<svg width="48" height="48" viewBox="0 0 48 48" fill="none" xmlns="http://www.w3.org/2000/svg">
<path d="M26 29.8571C26 31.0571 25.12 32 24 32C22.88 32 22 31.0571 22 29.8571C22 28.6571 24 26 24 26C24 26 26 28.7429 26 29.8571Z" fill="black"/>
<path fill-rule="evenodd" clip-rule="evenodd" d="M10.6487 21.3369C10.558 21.3308 10.4686 21.3161 10.3807 21.2925C8.51359 20.7922 8.04288 16.4945 9.32936 11.6933C10.6158 6.89213 13.1723 3.40556 15.0395 3.90586C15.1274 3.92942 15.2122 3.9614 15.2939 4.00145C15.3696 4.00381 15.4461 4.01485 15.5224 4.03529L17.227 4.49203C17.2409 4.49576 17.2547 4.49978 17.2685 4.50411C18.611 4.9268 19.1721 6.21074 19.4705 7.68306C19.693 8.78081 19.8161 10.2195 19.9021 12.0197L21.0742 12.3338C21.3031 11.3244 22.041 10.5082 23.0038 10.1694C23.0672 7.43445 23.9251 5.56159 25.4408 4.61939C26.9899 3.65644 28.8734 3.88941 30.4138 4.5896C31.9681 5.29613 33.3998 6.56906 34.1713 8.07537C34.9613 9.61786 35.0837 11.4962 33.7809 13.1247C32.9014 14.224 32.5955 15.2253 32.6015 16.0869C32.6076 16.9575 32.9331 17.7858 33.4875 18.5251C34.632 20.0511 36.598 21 38 21C38.5523 21 39 21.4477 39 22C39 22.5523 38.5523 23 38 23C35.9019 23 33.3679 21.6989 31.8875 19.7251C31.1294 18.7143 30.6112 17.4802 30.6016 16.1008C30.5919 14.7124 31.0985 13.2761 32.2191 11.8754C32.9163 11.0038 32.9136 10.0072 32.3912 8.98712C31.8502 7.9309 30.7818 6.95381 29.5862 6.41033C28.3766 5.8605 27.26 5.84345 26.4967 6.31797C25.7921 6.75594 25.0658 7.8175 25.0042 10.1722C26.1672 10.5852 27 11.6953 27 13V17.9996C28.2144 18.9118 29 20.3642 29 22V22.8898L31.3522 24.75V31.625L32.8294 38.5625C33.486 40.7059 32.2451 44 29.1363 44H18.8637C15.7548 44 14.514 40.7059 15.1705 38.5625L16.6478 31.625V24.75L19 22.8898V22C19 20.3642 19.7855 18.9118 21 17.9996V17.4903L18.5592 16.8362C17.6234 18.2858 16.8254 19.4234 16.1067 20.237C15.1121 21.3628 13.9842 22.1942 12.6102 21.889C12.5961 21.8859 12.5821 21.8824 12.5682 21.8787L10.8637 21.422C10.7873 21.4015 10.7154 21.3728 10.6487 21.3369ZM11.8406 18.2042C12.6935 17.0411 13.5632 15.2108 14.159 12.9874C14.7547 10.7641 14.9167 8.74414 14.7596 7.31037C14.6946 6.71648 14.5825 6.29537 14.4718 6.02444C14.2404 6.20369 13.9328 6.51237 13.5795 6.99417C12.7267 8.15733 11.8569 9.98763 11.2612 12.211C10.6655 14.4343 10.5035 16.4542 10.6605 17.888C10.7256 18.4819 10.8376 18.903 10.9484 19.1739C11.1798 18.9947 11.4874 18.686 11.8406 18.2042ZM13.0234 19.9301C14.2164 18.5416 15.3591 16.236 16.0908 13.5051C16.8226 10.7741 16.9858 8.20612 16.6469 6.40716L16.6835 6.41695C16.8938 6.48956 17.2395 6.74404 17.5104 8.08034C17.7693 9.3579 17.8874 11.2623 17.9792 14.0111C16.5253 16.3457 15.4708 17.9359 14.6078 18.9128C13.7051 19.9347 13.2784 19.9822 13.06 19.9399L13.0234 19.9301ZM24 19C22.3431 19 21 20.3431 21 22H27C27 20.3431 25.6568 19 24 19ZM25 17V13C25 12.4477 24.5523 12 24 12C23.4477 12 23 12.4477 23 13V17H25ZM20.8203 24L18.6478 25.7181V31.8356L17.725 36.1691C19.1336 36.6224 22.0485 37.2684 24.369 35.859C26.6521 34.4723 28.996 35.0754 30.1382 35.5269L29.3522 31.8356V25.7181L27.1796 24H20.8203Z" fill="black"/>
</svg>

<svg
  xmlns="http://www.w3.org/2000/svg"
  width="24"
  height="24"
  viewBox="0 0 24 24"
  fill="none"
  stroke="currentColor"
  stroke-width="2"
  stroke-linecap="round"
  stroke-linejoin="round"
>
  <path d="M26 29.857c0 1.2-.88 2.143-2 2.143s-2-.943-2-2.143S24 26 24 26s2 2.743 2 3.857" />
  <path
    fill-rule="evenodd"
    d="M10.649 21.337q-.136-.009-.268-.044c-1.867-.5-2.338-4.799-1.052-9.6s3.843-8.287 5.71-7.787a1.4 1.4 0 0 1 .255.095q.114.004.228.034l1.705.457.041.012c1.343.423 1.904 1.707 2.203 3.18.222 1.097.345 2.536.431 4.336l1.172.314a3 3 0 0 1 1.93-2.165c.063-2.735.921-4.607 2.437-5.55 1.549-.963 3.432-.73 4.973-.03 1.554.707 2.986 1.98 3.757 3.486.79 1.543.913 3.421-.39 5.05-.88 1.099-1.185 2.1-1.18 2.962.007.87.332 1.699.886 2.438C34.633 20.051 36.598 21 38 21a1 1 0 1 1 0 2c-2.098 0-4.632-1.301-6.113-3.275-.758-1.01-1.276-2.245-1.285-3.624-.01-1.389.497-2.825 1.617-4.226.697-.871.695-1.868.172-2.888-.54-1.056-1.61-2.033-2.805-2.577-1.21-.55-2.326-.567-3.09-.092-.704.438-1.43 1.5-1.492 3.854A3 3 0 0 1 27 13v5c1.214.912 2 2.364 2 4v.89l2.352 1.86v6.875l1.477 6.938c.657 2.143-.584 5.437-3.693 5.437H18.864c-3.11 0-4.35-3.294-3.693-5.437l1.477-6.938V24.75L19 22.89V22c0-1.636.785-3.088 2-4v-.51l-2.44-.654c-.937 1.45-1.735 2.587-2.453 3.401-.995 1.126-2.123 1.957-3.497 1.652l-.042-.01-1.704-.457a1 1 0 0 1-.215-.085m1.192-3.133c.853-1.163 1.722-2.993 2.318-5.217s.758-4.243.6-5.677c-.064-.594-.177-1.015-.287-1.286-.232.18-.54.488-.893.97-.852 1.163-1.722 2.994-2.318 5.217-.595 2.223-.757 4.243-.6 5.677.065.594.177 1.015.287 1.286.232-.18.54-.488.893-.97m1.182 1.726c1.193-1.388 2.336-3.694 3.068-6.425s.895-5.299.556-7.098l.037.01c.21.073.555.327.826 1.663.26 1.278.377 3.182.47 5.931-1.455 2.335-2.51 3.925-3.372 4.902-.903 1.022-1.33 1.07-1.548 1.027zM24 19a3 3 0 0 0-3 3h6a3 3 0 0 0-3-3m1-2v-4a1 1 0 1 0-2 0v4zm-4.18 7-2.172 1.718v6.118l-.923 4.333c1.409.453 4.323 1.1 6.644-.31 2.283-1.387 4.627-.784 5.77-.332l-.787-3.691v-6.118L27.18 24z"
    clip-rule="evenodd"
  />
</svg>
